src/images/icons/download.svg

<svg width="52" height="52" viewBox="0 0 52 52" fill="none" xmlns="http://www.w3.org/2000/svg">
<path fill-rule="evenodd" clip-rule="evenodd" d="M29.3365 7.50396C29.016 7.50026 28.641 7.49978 28.1922 7.49978H21.2334C19.3967 7.49978 18.0793 7.50055 17.0456 7.58501C16.0236 7.66852 15.3672 7.82881 14.8364 8.09924C13.8015 8.62654 12.9601 9.46794 12.4328 10.5028C12.1624 11.0336 12.0021 11.69 11.9186 12.712C11.8342 13.7457 11.8334 15.0631 11.8334 16.8998V35.0998C11.8334 36.9364 11.8342 38.2538 11.9186 39.2875C12.0021 40.3096 12.1624 40.966 12.4328 41.4967C12.9601 42.5316 13.8015 43.373 14.8364 43.9003C15.3672 44.1707 16.0236 44.331 17.0456 44.4145C18.0793 44.499 19.3967 44.4998 21.2334 44.4998H30.7667C32.6034 44.4998 33.9207 44.499 34.9545 44.4145C35.9765 44.331 36.6329 44.1707 37.1637 43.9003C38.1985 43.373 39.0399 42.5316 39.5672 41.4967C39.8377 40.966 39.998 40.3096 40.0815 39.2875C40.1659 38.2538 40.1667 36.9364 40.1667 35.0998V19.4743C40.1667 19.0257 40.1662 18.6507 40.1625 18.3303C40.1364 18.3324 40.11 18.3334 40.0834 18.3334H37.2667H37.2236C36.0467 18.3334 35.1026 18.3335 34.3392 18.2711C33.5547 18.207 32.8734 18.0721 32.2454 17.7521C31.2419 17.2408 30.426 16.4249 29.9147 15.4214C29.5947 14.7934 29.4598 14.1121 29.3957 13.3277C29.3334 12.5642 29.3334 11.6201 29.3334 10.4433V10.4001V7.58337C29.3334 7.55664 29.3344 7.53016 29.3365 7.50396ZM31.3334 7.71563V10.4001C31.3334 11.6301 31.3342 12.4924 31.3891 13.1648C31.4431 13.8255 31.5443 14.2144 31.6967 14.5134C32.0163 15.1406 32.5262 15.6505 33.1534 15.9701C33.4524 16.1225 33.8413 16.2237 34.502 16.2777C35.1744 16.3327 36.0368 16.3334 37.2667 16.3334H39.9509C39.8142 15.8597 39.6143 15.4061 39.3562 14.9851C39.0305 14.4535 38.5714 13.9853 37.4135 12.8275L34.839 10.253C33.6812 9.09513 33.213 8.636 32.6814 8.31026C32.2604 8.05229 31.807 7.85238 31.3334 7.71563ZM28.3235 5.49977C29.788 5.49959 30.6941 5.49948 31.5585 5.707C32.3238 5.89073 33.0553 6.19376 33.7264 6.60498C34.4844 7.06945 35.125 7.71022 36.1604 8.74595L36.2532 8.83876L38.8277 11.4132L38.9205 11.506C39.9563 12.5415 40.597 13.1821 41.0615 13.9401C41.4727 14.6111 41.7758 15.3427 41.9595 16.108C42.167 16.9724 42.1669 17.8784 42.1667 19.343V19.343L42.1667 19.4743V35.0998V35.1445V35.1447V35.1448C42.1667 36.927 42.1667 38.3258 42.0748 39.4504C41.9812 40.5961 41.7873 41.545 41.3493 42.4047C40.6302 43.8159 39.4829 44.9633 38.0716 45.6823C37.212 46.1204 36.2631 46.3143 35.1173 46.4079C33.9927 46.4998 32.5937 46.4998 30.8114 46.4998H30.7667H21.2334H21.1887C19.4063 46.4998 18.0074 46.4998 16.8828 46.4079C15.737 46.3143 14.7881 46.1204 13.9284 45.6823C12.5172 44.9633 11.3699 43.8159 10.6508 42.4047C10.2128 41.545 10.0189 40.5961 9.92525 39.4504C9.83336 38.3257 9.83337 36.9268 9.83337 35.1444V35.0998V16.8998V16.8551C9.83337 15.0728 9.83336 13.6738 9.92525 12.5492C10.0189 11.4034 10.2128 10.4545 10.6508 9.59485C11.3699 8.18363 12.5172 7.03628 13.9284 6.31723C14.7881 5.8792 15.737 5.68526 16.8828 5.59165C18.0074 5.49977 19.4064 5.49977 21.1887 5.49978H21.2334H28.1922L28.3235 5.49977ZM26 22.8334C26.5523 22.8334 27 23.2811 27 23.8334V34.4192L30.7096 30.7096C31.1001 30.3191 31.7333 30.3191 32.1238 30.7096C32.5143 31.1001 32.5143 31.7333 32.1238 32.1238L26.7071 37.5405C26.3166 37.931 25.6835 37.931 25.2929 37.5405L19.8763 32.1238C19.4857 31.7333 19.4857 31.1001 19.8763 30.7096C20.2668 30.3191 20.9 30.3191 21.2905 30.7096L25 34.4192V23.8334C25 23.2811 25.4478 22.8334 26 22.8334Z" fill="white"/>
</svg>

<svg width="52" height="52" fill="none" xmlns="http://www.w3.org/2000/svg"><path fill-rule="evenodd" clip-rule="evenodd" d="M29.337 7.504c-.321-.004-.696-.004-1.145-.004h-6.959c-1.836 0-3.154 0-4.187.085-1.022.084-1.679.244-2.21.514a5.5 5.5 0 0 0-2.403 2.404c-.27.53-.43 1.187-.514 2.209-.085 1.034-.086 2.351-.086 4.188v18.2c0 1.836.001 3.154.086 4.188.083 1.022.243 1.678.514 2.209a5.5 5.5 0 0 0 2.403 2.403c.531.27 1.188.431 2.21.514 1.033.085 2.35.086 4.187.086h9.534c1.836 0 3.154-.001 4.188-.086 1.022-.083 1.678-.243 2.209-.514a5.5 5.5 0 0 0 2.403-2.403c.27-.531.431-1.187.514-2.21.085-1.033.086-2.35.086-4.187V19.474c0-.448 0-.823-.005-1.144a.987.987 0 0 1-.079.003h-2.859c-1.177 0-2.121 0-2.885-.062-.784-.064-1.466-.199-2.094-.519a5.333 5.333 0 0 1-2.33-2.33c-.32-.629-.455-1.31-.52-2.094-.062-.764-.062-1.708-.062-2.885v-2.86c0-.026.001-.053.004-.079Zm1.996.212V10.4c0 1.23.001 2.092.056 2.765.054.66.155 1.05.308 1.348.32.628.83 1.137 1.456 1.457.3.152.688.254 1.349.308.672.055 1.535.055 2.765.055h2.684a5.494 5.494 0 0 0-.595-1.348c-.325-.531-.785-1-1.943-2.157l-2.574-2.575c-1.158-1.158-1.626-1.617-2.158-1.943a5.5 5.5 0 0 0-1.348-.594ZM28.323 5.5c1.465 0 2.371 0 3.235.207a7.5 7.5 0 0 1 2.168.898c.758.464 1.399 1.105 2.434 2.141l.093.093 2.575 2.574.092.093c1.036 1.035 1.677 1.676 2.142 2.434.41.671.714 1.403.898 2.168.207.864.207 1.77.207 3.235v15.801c0 1.783 0 3.182-.092 4.306-.094 1.146-.288 2.095-.726 2.955a7.5 7.5 0 0 1-3.277 3.277c-.86.438-1.809.632-2.955.726-1.124.092-2.523.092-4.306.092H21.19c-1.783 0-3.182 0-4.306-.092-1.146-.094-2.095-.288-2.955-.726a7.5 7.5 0 0 1-3.277-3.277c-.438-.86-.632-1.809-.726-2.955-.092-1.124-.092-2.523-.092-4.306V16.855c0-1.782 0-3.181.092-4.306.094-1.146.288-2.095.726-2.954a7.5 7.5 0 0 1 3.277-3.278c.86-.438 1.809-.632 2.955-.725C18.008 5.5 19.407 5.5 21.19 5.5h7.133ZM26 22.833a1 1 0 0 1 1 1V34.42l3.71-3.71a1 1 0 0 1 1.414 1.415l-5.417 5.416a1 1 0 0 1-1.414 0l-5.417-5.416a1 1 0 1 1 1.415-1.414L25 34.42V23.832a1 1 0 0 1 1-1Z" fill="#fff"/></svg>
